src/status/24/notification-new-50-symbolic.svg

<?xml version="1.0" encoding="UTF-8" standalone="no"?>
<svg
   xmlns:dc="http://purl.org/dc/elements/1.1/"
   xmlns:cc="http://creativecommons.org/ns#"
   xmlns:rdf="http://www.w3.org/1999/02/22-rdf-syntax-ns#"
   xmlns:svg="http://www.w3.org/2000/svg"
   xmlns="http://www.w3.org/2000/svg"
   id="svg8"
   version="1.1"
   width="24"
   height="24">
  <metadata
     id="metadata14">
    <rdf:RDF>
      <cc:Work
         rdf:about="">
        <dc:format>image/svg+xml</dc:format>
        <dc:type
           rdf:resource="http://purl.org/dc/dcmitype/StillImage" />
        <dc:title />
      </cc:Work>
    </rdf:RDF>
  </metadata>
  <defs
     id="defs12" />
  <path
     id="path2-3-5-2-2-5-7"
     d="M 13.878906 5.0117188 C 13.625173 5.045123 13.384902 5.1754528 13.216797 5.3945312 L 13.210938 5.4023438 C 11.533888 4.6902612 9.5111406 5.2979152 8.4003906 6.7421875 C 8.4003906 6.7421875 5.3571194 10.709277 3.6621094 10.191406 C 3.6427094 10.190406 3.6262687 10.201962 3.6054688 10.201172 C 3.5254687 10.202004 3.4446106 10.215468 3.3691406 10.242188 C 3.3384406 10.252648 3.30935 10.255841 3.28125 10.269531 C 3.17525 10.317991 3.0822256 10.391103 3.0097656 10.482422 C 2.7565156 10.812457 2.8191975 11.28252 3.1484375 11.535156 L 11.478516 17.925781 C 11.808556 18.179026 12.276047 18.117144 12.529297 17.787109 C 12.598697 17.693419 12.646646 17.585639 12.363636016 17.470703 C 12.672016 17.439963 12.667922 17.409886 12.669922 17.378906 C 12.675922 17.298846 12.668838 17.218326 12.648438 17.140625 C 12.643437 17.121365 12.649578 17.101101 12.642578 17.082031 C 11.703048 15.579608 14.748047 11.611328 14.748047 11.611328 C 15.856227 10.163827 15.920155 8.0545803 14.796875 6.6191406 L 14.802734 6.6113281 C 15.138934 6.1731712 15.055338 5.5471443 14.617188 5.2109375 L 14.619141 5.2089844 C 14.400061 5.040881 14.13264 4.9783145 13.878906 5.0117188 z M 3.1699219 12.8125 C 3.0433619 13.388623 3.1779194 13.991227 3.5371094 14.458984 C 4.1274624 15.22557 5.1821416 15.459212 6.0410156 15.013672 L 3.1699219 12.8125 z "
     style="color:#bebebe;overflow:visible;isolation:auto;mix-blend-mode:normal;fill:#ffffff;marker:none" />
</svg>

<?xml version="1.0" encoding="UTF-8"?>
<svg id="svg8" width="24" height="24" version="1.1" xmlns="http://www.w3.org/2000/svg" xmlns:cc="http://creativecommons.org/ns#" xmlns:dc="http://purl.org/dc/elements/1.1/" xmlns:rdf="http://www.w3.org/1999/02/22-rdf-syntax-ns#">
 <metadata id="metadata14">
  <rdf:RDF>
   <cc:Work rdf:about="">
    <dc:format>image/svg+xml</dc:format>
    <dc:type rdf:resource="http://purl.org/dc/dcmitype/StillImage"/>
    <dc:title/>
   </cc:Work>
  </rdf:RDF>
 </metadata>
 <path id="path2-3-5-2-2-5-7" d="m13.879 5.0117c-0.25373 0.033404-0.494 0.16373-0.66211 0.38281l-0.005859 0.0078126c-1.677-0.71208-3.6998-0.10443-4.8105 1.3398 0 0-3.0433 3.9671-4.7383 3.4492-0.0194-1e-3 -0.035841 0.010556-0.056641 0.009766-0.08 8.32e-4 -0.16086 0.014296-0.23633 0.041016-0.0307 0.01046-0.059791 0.013653-0.087891 0.027343-0.106 0.04846-0.19902 0.12157-0.27148 0.21289-0.25325 0.33004-0.19057 0.8001 0.13867 1.0527l8.3301 6.3906c0.33004 0.25324 0.79753 0.19136 1.0508-0.13867 0.0694-0.09369 0.11735-0.20147-0.16566-0.31641 0.30838-0.03074 0.30429-0.060817 0.30629-0.091797 6e-3 -0.08006-0.001084-0.16058-0.021484-0.23828-0.005001-0.01926 0.00114-0.039524-0.00586-0.058594-0.93953-1.5024 2.1055-5.4707 2.1055-5.4707 1.1082-1.4475 1.1721-3.5567 0.048828-4.9922l0.005859-0.0078125c0.3362-0.43816 0.2526-1.0642-0.18555-1.4004l0.001953-0.0019531c-0.21908-0.1681-0.4865-0.23067-0.74024-0.19727zm-10.709 7.8008c-0.12656 0.57612 0.0079975 1.1787 0.36719 1.6465 0.59035 0.76659 1.645 1.0002 2.5039 0.55469l-2.8711-2.2012z" color="#bebebe" fill="#fff" style="isolation:auto;mix-blend-mode:normal"/>
</svg>
